X:13
T:15a. Black Mountain
C:Larry Mallette
R:double jig
N:Wrote this tune while at the Swannanoa Gathering in North Carolina and named it for the nearby mountain where the closing student performances were held.
M:6/8
Q:320
K:Am
"Double Jig"
G|EAA EBB|EAA G2E|EGA B2c|BAG A2G|EAA EDE|\
GAB c2e|efe dcB|BAG A2:|
e|efe d2e|dcB c2c|BAB ~d3|ede a2a|\
efe d2e|dcB ~A3|~e3 dcB|BAG A2|
e|efe d2e|dcB c2c|BAB ~e3|geg a2e|\
efe d2e|dcB ~A3|e^de =dcB|BAG A2|]





